X: 1
T: \,Sobolanul (G)
O: Romania
N: From handwritten MS
Z: 2003 John Chambers <jc@trillian.mit.edu>
M: none
L: 1/8
K: G
|: "G"d^cd "C"ed "D7"=cc "G"BG BB2 | "G"d^cd "C"ed "D7"=cc "G"BG "D7"AA2 :|
|: "D7"F/G/A/B/ c/A/ "G"B2 | "D7"F/G/A/B/ c/A/ "G"B2 | "D7"F/G/A/B/ c/A/ "G"B2 | "A"A2 A2 "D"dA2 :|
